X:155
T: ES WAREN ZWEI KOENIGSKINDER
N: E0084A
O: Europa, Mitteleuropa, Deutschland, Bonn
R: erzaehlendes Volks - Lied, Sage, Liebe, Leid, Tod
M: 6/8
L: 1/16
K: G
D2 | G2G2A2_B2A2B2 | G3A_B2A4
D2 | G2F2G2A2G2D2 | G8z2
GA | _B2A2B2d2c2B2 | A3_Bc2B4
B2 | G2F2G2A2G2F2 | G8z2

